X:1
T:Title
%%score { 1 | 2 }
L:1/8
Q:1/4=68
M:6/8
K:Ab
V:1 treble nm="Grand Piano"
V:2 bass 
V:1
 [Ec][EB][EA] [FB][FA][DF] | [DF][FA][DF] [CE]2 [CE] | [CE][EA]B c<ef | ec[EA] [EB]3 | %4
w: L.~A.~Morris * * * * *||||
 [Ec][EB][EA] [FB][FA][DF] | [DF][FA][DF] [CE]2 [CE] | [CE][EA]B c<e[EAc] | [DGB][EGc][DGB] [CA]3 | %8
w: ||||
 e<ee f e2 |[M:13/16] c<c[EA][DFB][DFA]3/2[A,DF] |[M:3/4] [A,CE][A,EA] Bc/e/- ee | fe c [GB]3 | %12
w: ||||
 c<e ef e2 |[M:13/16] c<c[EA][DFB][DFA]3/2[A,DF] |[M:3/4] [A,CE][A,EA] Bc/e/- e[EAc] | %15
w: |||
[M:13/16] [DGB][EGc]3/2[DGB][CA]/-[CA]/-[CA]-<[CA] |] %16
w: |
V:2
 [A,,A,][B,,G,][C,A,] [D,D][D,D][D,A,] | [D,A,][D,A,][D,A,] [A,,A,]2 [A,,A,] | %2
 [A,,A,][C,A,][E,G,E][K:treble] [A,E]<[A,CA][A,DA] | [A,CA][A,E][K:bass][C,A,] [E,G,]3 | %4
 [A,,A,][B,,G,][C,A,] [D,D][D,D][D,A,] | [D,A,][D,A,][D,A,] [A,,A,]2 [A,,A,] | %6
 [A,,A,][C,A,][E,G,E][K:treble] [A,E]<[A,CA][K:bass][A,,A,] | E,E,E, A,,3 | %8
 [A,CA]<[A,CA][A,CA] [A,DA] [A,CA]2 |[M:13/16] [A,EA]<[A,EA][K:bass]C,D,D,3/2D, | %10
[M:3/4] A,,C, [E,G,E][K:treble][A,E]/[A,CA]/- [A,CA][A,CA] | [A,DA][A,CA] [A,EA] [E,E]3 | %12
 [A,EA]<[A,CA] [A,CA][A,DA] [A,CA]2 |[M:13/16] [A,EA]<[A,EA][K:bass]C,D,D,3/2D, | %14
[M:3/4] A,,C, [E,G,E][K:treble][A,E]/[A,CA]/- [A,CA][K:bass][A,,A,] | %15
[M:13/16] E,E,3/2E,A,,/-A,,/-A,,-<A,, |] %16

